X: 1
T: Nathaniel Gow
R: Strathspey
C: Duncan MacIntyre
B: Gow - Fifth Collection of Strathspey Reels (1809)
S: https://tunearch.org/wiki/Nathaniel_Gow
Z: AK/Fiddler's Companion
M: C
L: 1/8
Q: "Slowly"
K: Bb
B,F DG FB, {E}D2 | B,>FD>F G/F/E/D/ C>D | BGEG FB, D>B | TF>G TB>c (d/c/)B/A/ Bd ||
B,F DG FB, {E}D2 | B,>FD>F G/F/E/D/ C>D | BGEG FB, D>B | TF>G TB>c (d/c/)B/A/ Bf |]
f>B (e/d/)c/B/ fB {Bc}d2 | fBdf gc(eg) | fBdf (Bf)(df) | (eg)(df) gc(eg) ||
f>B {e}dc/B/ fB {Bc}d2 | fBd>f .g/.f/.e/.d/ .c/.B/.A/.G/ | ~F>B (G/F/).E/.D/ FB,DF | (E/F/G) D/(E/F) G(CEG) |]
